src/icons/codecov.svg

<svg viewBox="0 0 24 24" xmlns="http://www.w3.org/2000/svg">
  <path
    d="M12.006 2.375C6.478 2.379 1.978 6.846 1.974 12.334V12.359L3.68 13.354L3.703 13.338C4.76809 12.6123 6.07591 12.3346 7.344 12.565C8.24122 12.7244 9.07365 13.1385 9.742 13.758L10.035 14.031L10.201 13.668C10.361 13.318 10.547 12.988 10.751 12.688C10.8399 12.5613 10.9327 12.4372 11.029 12.316L11.201 12.101L10.99 11.925C10.057 11.1461 8.93727 10.6236 7.741 10.409C6.62166 10.2066 5.4702 10.2738 4.382 10.605C5.194 7.049 8.321 4.569 12.013 4.566C13.0363 4.56253 14.0503 4.76098 14.9968 5.14999C15.9434 5.539 16.8038 6.11092 17.529 6.833C18.5712 7.86078 19.2981 9.16498 19.624 10.592C18.9468 10.3838 18.2425 10.277 17.534 10.275H17.407C17.1297 10.2795 16.8529 10.2998 16.578 10.336L16.544 10.341C16.4346 10.3548 16.3255 10.3715 16.217 10.391C16.0593 10.4195 15.9025 10.4532 15.747 10.492L15.632 10.522C15.498 10.558 15.362 10.599 15.229 10.642L15.204 10.65C14.9034 10.7525 14.6101 10.8751 14.326 11.017L14.303 11.029C14.1699 11.0959 14.0392 11.1672 13.911 11.243L13.881 11.261C13.2082 11.6608 12.6095 12.1737 12.111 12.777L12.048 12.853C11.8434 13.1056 11.6573 13.3727 11.491 13.652L11.441 13.739C11.3724 13.857 11.3074 13.9771 11.246 14.099L11.232 14.124C11.0896 14.4113 10.967 14.708 10.865 15.012L10.85 15.056C10.6098 15.7862 10.4939 16.5515 10.507 17.32L10.508 17.414C10.5121 17.5241 10.5181 17.6341 10.526 17.744L10.54 17.899C10.546 17.963 10.554 18.026 10.561 18.089L10.566 18.123L10.577 18.209C10.592 18.315 10.609 18.419 10.629 18.525C10.831 19.582 11.335 20.64 12.087 21.583L12.121 21.625L12.156 21.584C12.456 21.229 13.2 20.105 13.263 19.43L13.264 19.418L13.258 19.407C12.9082 18.7374 12.7247 17.9935 12.723 17.238C12.723 14.718 14.705 12.625 17.233 12.474L17.398 12.468C18.4302 12.4443 19.4441 12.7435 20.298 13.324L20.321 13.34L22.005 12.361L22.027 12.348V12.323C22.031 11.0135 21.7736 9.71636 21.2698 8.50765C20.766 7.29894 20.0259 6.20297 19.093 5.284C18.1611 4.35671 17.0555 3.62237 15.8394 3.12302C14.6233 2.62368 13.3206 2.37015 12.006 2.375Z"
    fill="#EC407A"
  />
</svg>

<svg viewBox="0 0 24 24" xmlns="http://www.w3.org/2000/svg">
  <path
    d="M12.006 2.375c-5.528.004-10.028 4.471-10.032 9.959v.025l1.706.995.023-.016a4.908 4.908 0 0 1 3.641-.773 4.75 4.75 0 0 1 2.398 1.193l.293.273.166-.363c.16-.35.346-.68.55-.98a7.78 7.78 0 0 1 .278-.372l.172-.215-.211-.176a6.998 6.998 0 0 0-3.249-1.516 7.16 7.16 0 0 0-3.359.196c.812-3.556 3.939-6.036 7.631-6.039a7.78 7.78 0 0 1 5.516 2.267 7.681 7.681 0 0 1 2.095 3.759 7.182 7.182 0 0 0-2.09-.317h-.127a7.258 7.258 0 0 0-.829.061l-.034.005a6.393 6.393 0 0 0-.327.05 7.338 7.338 0 0 0-.47.101l-.115.03c-.134.036-.27.077-.403.12l-.025.008a7.092 7.092 0 0 0-.878.367l-.023.012a6.56 6.56 0 0 0-.392.214l-.03.018a6.806 6.806 0 0 0-1.77 1.516l-.063.076a6.778 6.778 0 0 0-.557.799l-.05.087a6.8 6.8 0 0 0-.195.36l-.014.025a7.058 7.058 0 0 0-.367.888l-.015.044a6.87 6.87 0 0 0-.343 2.264l.001.094a9.45 9.45 0 0 0 .018.33l.014.155c.006.064.014.127.021.19l.005.034.011.086c.015.106.032.21.052.316.202 1.057.706 2.115 1.458 3.058l.034.042.035-.041c.3-.355 1.044-1.479 1.107-2.154l.001-.012-.006-.011a4.707 4.707 0 0 1-.535-2.169c0-2.52 1.982-4.613 4.51-4.764l.165-.006a4.956 4.956 0 0 1 2.9.856l.023.016 1.684-.979.022-.013v-.025a9.838 9.838 0 0 0-2.934-7.039 9.995 9.995 0 0 0-7.087-2.91"
    style="fill-rule: evenodd; fill: #ec407a; stroke-width: 0.40106"
  />
</svg>
